!!!COM: Palestrina, Giovanni Perluigi da
!!!OPR: Missa Descendit angelus Domini
!!!OTL: Gloria
**kern	**kern	**kern	**kern
*Ibass	*Itenor	*Icalto	*Icant
!Bassus	!Tenor	!Altus	!Cantus
*clefF4	*clefGv2	*clefG2	*clefG2
*k[b-]	*k[b-]	*k[b-]	*k[b-]
*F:ion	*F:ion	*F:ion	*F:ion
*M4/2	*M4/2	*M4/2	*M4/2
=1	=1	=1	=1
1r	1c	0r	0r
1F	1c	.	.
=2	=2	=2	=2
1F	1A	0r	0r
1D	1F	.	.
=3	=3	=3	=3
1C	1.c	0r	0r
[1F	.	.	.
.	2c	.	.
=4	=4	=4	=4
2F]	2d	0r	0r
2F	2d	.	.
2G	4e	.	.
.	4f	.	.
2G	4g	.	.
.	4f	.	.
=5	=5	=5	=5
1A	4e	1r	1cc
.	4d	.	.
.	4c	.	.
.	4B-	.	.
2.F	4A	1f	1cc
.	4G	.	.
.	2A	.	.
4G	.	.	.
=6	=6	=6	=6
2A	1F	1f	1a
2F	.	.	.
2B-	2r	1d	1f
2B-	2f	.	.
=7	=7	=7	=7
2.A	2f	1c	1.cc
.	2e	.	.
4G	.	.	.
2F	2d	[1f	.
2E	[2c	.	2cc
=8	=8	=8	=8
1D	4c]	2f]	2dd
.	4B	.	.
.	4B	2f	2dd
.	4A	.	.
1C	1c	2g	2.ee
.	.	2g	.
.	.	.	4dd
=9	=9	=9	=9
0r	2F	1.a	1cc
.	2.f	.	.
.	.	.	1ff
.	4e	.	.
.	2d	2f	.
=10	=10	=10	=10
0r	2c	2g	2ee
.	2B-	2b-	2dd
.	2.f	2a	2cc
.	.	4f	[2ff
.	4e	4g	.
=11	=11	=11	=11
0r	2d	4a	4ff]
.	.	4b	4dd
.	2c	1cc	2ee
.	1g	.	1dd
.	.	2b	.
=12	=12	=12	=12
2r	2r	1cc	1cc
2F	2f	.	.
2G	2e	1r	1r
2B-	2d	.	.
=13	=13	=13	=13
4A	4c	2r	0r
4G	4B-	.	.
4F	4A	2f	.
4G	4B-	.	.
4A	1c	1e	.
4B-	.	.	.
[2c	.	.	.
=14	=14	=14	=14
4c]	1F	1d	1r
4B-	.	.	.
4B-	.	.	.
8A	.	.	.
8G	.	.	.
2.A	1r	4c	2r
.	.	8d	.
.	.	8e	.
.	.	[2f	2f
4B-	.	.	.
=15	=15	=15	=15
1G	1r	4f]	2g
.	.	4e	.
.	.	4e	2b-
.	.	8d	.
.	.	8e	.
1F	2.c	1f	1a
.	4c	.	.
=16	=16	=16	=16
0r	2d	0r	2.f
.	2f	.	.
.	.	.	4f
.	2e	.	2g
.	4d	.	2b-
.	4e	.	.
=17	=17	=17	=17
1r	4f	0r	4a
.	4g	.	4g
.	2.a	.	4f
.	.	.	4g
2.F	.	.	4a
.	4g	.	4b-
.	4f	.	4cc
4F	4e	.	4a
=18	=18	=18	=18
2G	2.d	0r	4b-
.	.	.	4cc
2B-	.	.	2.dd
.	4e	.	.
1A	4f	.	.
.	4e	.	4cc
.	4e	.	[2cc
.	8d	.	.
.	8c	.	.
=19	=19	=19	=19
1G	1d	1r	2cc]
.	.	.	2b
1A	1c	2r	2cc
.	.	2c	2cc
=20	=20	=20	=20
2r	0r	2d	2b-
2F	.	2f	2a
2G	.	2e	2g
2B-	.	4d	4f
.	.	4e	4g
=21	=21	=21	=21
2A	0r	4f	4a
.	.	4g	4b-
2.F	.	2.a	2.cc
4G	.	4g	4b-
4A	.	[2f	[2a
4B-	.	.	.
=22	=22	=22	=22
0c	1r	2f]	2a]
.	.	4e	4g
.	.	4d	4f
.	2r	2e	2g
.	2F	2f	2a
=23	=23	=23	=23
0r	2G	2e	2g
.	2B-	2d	2f
.	2A	2.f	2.a
.	[2F	.	.
.	.	4g	4b-
=24	=24	=24	=24
0r	4F]	2.a	2.cc
.	4G	.	.
.	4A	.	.
.	4B-	4g	4b-
.	4c	4e	4g
.	4B-	4f	4a
.	4G	[2g	4b-
.	4A	.	4cc
=25	=25	=25	=25
0r	2B-	2g]	2dd
.	2c	2e	1cc
.	1G	1d	.
.	.	.	2b
=26	=26	=26	=26
2r	2r	1c	2cc
1c	1g	.	1ee
.	.	2.cc	.
2c	2g	.	2ee
.	.	4cc	.
=27	=27	=27	=27
1c	1g	1cc	1ee
[1F	[1a	[1cc	[1ff
=28	=28	=28	=28
2F]	2a]	2cc]	2ff]
2c	2g	2cc	2ee
2c	2g	1cc	[1ee
[2C	4g	.	.
.	4f	.	.
=29	=29	=29	=29
4C]	4e	1g	1ee]
4D	4d	.	.
4E	1c	.	.
4F	.	.	.
1G	.	2g	1dd
.	2B	[2g	.
=30	=30	=30	=30
2C	1c	2g]	1ee
1c	.	2e	.
.	1r	2g	2r
2A	.	2a	[2cc
=31	=31	=31	=31
2c	0r	2g	2cc]
2d	.	2f	2a
2c	.	2e	2cc
2B-	.	2d	2dd
=32	=32	=32	=32
2.A	2r	1e	2.cc
.	1c	.	.
4G	.	.	4b-
1F	.	[1f	4a
.	.	.	4g
.	2A	.	[2a
=33	=33	=33	=33
2F	2c	1f]	2a]
2D	2d	.	2f
2E	1c	2e	2g
[2F	.	[2c	[2a
=34	=34	=34	=34
2F]	2A	2c]	4a]
.	.	.	4g
2BB-	2B-	2d	1f
1C	1G	[1c	.
.	.	.	2e
=35	=35	=35	=35
0F	4A	1c]	1f
.	4G	.	.
.	4F	.	.
.	4G	.	.
.	4A	2r	2.cc
.	4B-	.	.
.	4c	[2f	.
.	4A	.	4cc
=36	=36	=36	=36
0r	2.B-	4f]	2dd
.	.	4f	.
.	.	2d	2ff
.	4A	.	.
.	1G	2g	2ee
.	.	2g	[2dd
=37	=37	=37	=37
0r	0r	2f	2dd]
.	.	2e	1cc
.	.	1d	.
.	.	.	2b
=38	=38	=38	=38
2r	2r	1c	1cc
1F	2c	.	.
.	2d	1f	1r
2D	2f	.	.
=39	=39	=39	=39
1G	2e	2g	1r
.	2.d	2b-	.
2F	.	2a	2r
.	4c	.	.
2E	[2c	2g	2cc
=40	=40	=40	=40
2D	4c]	2.f	2dd
.	8B-	.	.
.	8A	.	.
2D	2B-	.	1ff
.	.	4g	.
1C	4c	4a	.
.	4d	4b-	.
.	4e	[2cc	[2ee
.	4f	.	.
=41	=41	=41	=41
2r	1.g	4cc]	2ee]
.	.	4b-	.
2G	.	1b-	1dd
2B-	.	.	.
2c	2e	2a	[2cc
=42	=42	=42	=42
2G	2d	1g	2cc]
2G	2g	.	2b-
4A	2f	1c	2a
4B-	.	.	.
4c	2e	.	4g
4A	.	.	4f
=43	=43	=43	=43
2B-	2d	4d	2g
.	.	4e	.
2A	2c	1f	2a
1G	2B-	.	[1b-
.	2B-	2e	.
=44	=44	=44	=44
1F	0c	2f	2b-]
.	.	1f	4a
.	.	.	4g
1F	.	.	2a
.	.	2f	[2cc
=45	=45	=45	=45
2E	2r	1g	2cc]
2C	2c	.	2cc
1G	2B-	2.b-	1dd
.	2G	.	.
.	.	4b-	.
=46	=46	=46	=46
1D	2.d	2a	2.ff
.	.	2f	.
.	4d	.	4ff
1r	2c	2a	2ee
.	2A	2a	2cc
=47	=47	=47	=47
0r	2c	4g	2ee
.	.	4f	.
.	2c	4g	2ee
.	.	4a	.
.	1G	2.b-	2.dd
.	.	4a	4cc
=48	=48	=48	=48
0r	1r	4g	4b-
.	.	4f	4a
.	.	1f	4a
.	.	.	8g
.	.	.	8f
.	[1c	.	1g
.	.	2e	.
=49	=49	=49	=49
1.F	2c]	2f	1a
.	2c	2.a	.
.	2d	.	1r
.	.	4a	.
2F	2f	2a	.
=50	=50	=50	=50
1G	2e	1g	2r
.	1d	.	2.dd
2.B-	.	1f	.
.	.	.	4dd
.	2d	.	2dd
4B-	.	.	.
=51	=51	=51	=51
2A	2.f	2.a	2cc
2F	.	.	2a
.	4f	4a	.
2A	2e	2a	2cc
2A	[2c	2e	2cc
=52	=52	=52	=52
1G	2c]	2g	2dd
.	2B-	1g	2dd
2r	2c	.	1cc
[2c	2A	2f	.
=53	=53	=53	=53
2c]	2G	2.g	1r
2B-	1g	.	.
.	.	4f	.
2c	.	2e	2r
2A	2f	2c	[2cc
=54	=54	=54	=54
1G	2.g	1d	2cc]
.	.	.	2b-
.	4f	.	.
2r	2e	1c	2.cc
[2F	2f	.	.
.	.	.	4b-
=55	=55	=55	=55
2F]	2.c	2r	2a
2E	.	1c	2g
.	4B-	.	.
2F	2A	.	2a
2D	2F	2d	2b-
=56	=56	=56	=56
0C	2G	2e	0cc
.	2A	2.f	.
.	2G	.	.
.	.	8e	.
.	.	8d	.
.	[2c	2e	.
=57	=57	=57	=57
1F	4c]	1f	2.a
.	4c	.	.
.	2d	.	.
.	.	.	4b-
2r	2e	1c	1cc
[2F	2c	.	.
=58	=58	=58	=58
4F]	2d	0r	0r
4F	.	.	.
2G	2e	.	.
2A	2.f	.	.
2F	.	.	.
.	4e	.	.
=59	=59	=59	=59
2G	2d	2r	0r
2A	2c	2.f	.
1B-	1d	.	.
.	.	4f	.
.	.	2g	.
=60	=60	=60	=60
1F	2c	1.a	2r
.	2.f	.	2.cc
1r	.	.	.
.	4f	.	4cc
.	2d	2f	2dd
=61	=61	=61	=61
0r	1c	2g	2ee
.	.	2a	2cc
.	1g	1b-	2dd
.	.	.	2ee
=62	=62	=62	=62
1r	2f	0a	2.ff
.	2d	.	.
.	.	.	4ee
2r	2.f	.	4dd
.	.	.	4cc
[2F	.	.	[2cc
.	4e	.	.
=63	=63	=63	=63
4F]	1d	1r	2cc]
4F	.	.	.
2G	.	.	2b
2A	2c	2r	1cc
2F	[2c	[2f	.
=64	=64	=64	=64
2A	4c]	4f]	0r
.	4c	4f	.
2B-	2d	2g	.
2.c	2.e	2.a	.
4A	4c	4f	.
=65	=65	=65	=65
4B-	4d	4g	0r
4c	4e	4a	.
2.d	2.f	2.b-	.
4c	4e	4a	.
2A	2c	[2a	.
=66	=66	=66	=66
2B-	2d	2a]	2r
2c	2e	2g	2.cc
1F	1f	1a	.
.	.	.	4cc
.	.	.	2dd
=67	=67	=67	=67
0r	1c	2r	2.ee
.	.	2.g	.
.	.	.	4cc
.	2r	.	4dd
.	.	4g	4ee
.	[2d	2a	[2ff
=68	=68	=68	=68
0r	4d]	2b-	2ff]
.	4d	.	.
.	2e	2g	4ee
.	.	.	4dd
.	2.f	2.a	4cc
.	.	.	4a
.	.	.	2dd
.	4d	4f	.
=69	=69	=69	=69
2r	2e	2g	2cc
2.F	2f	2c	2.a
.	1d	2r	.
4F	.	.	4a
2G	.	2g	2b-
=70	=70	=70	=70
2.A	1a	2e	2.cc
.	.	2f	.
4F	.	.	4a
4G	2g	2.d	4b-
4A	.	.	4cc
[2B-	[2f	.	[2dd
.	.	8e	.
.	.	8f	.
=71	=71	=71	=71
2B-]	2f]	0g	2dd]
2c	2e	.	1cc
1G	1d	.	.
.	.	.	2b
=72	=72	=72	=72
0C	0c	0e	0cc
=73	=73	=73	=73
0r	0r	0r	1f
.	.	.	1cc
=74	=74	=74	=74
0r	0r	1c	1.cc
.	.	1f	.
.	.	.	2cc
=75	=75	=75	=75
0r	0r	1.f	2dd
.	.	.	2cc
.	.	.	1ff
.	.	2f	.
=76	=76	=76	=76
0r	0r	2g	2ee
.	.	2f	1dd
.	.	1b-	.
.	.	.	4cc
.	.	.	4b-
=77	=77	=77	=77
0r	0r	2a	2cc
.	.	2.g	2dd
.	.	.	2g
.	.	4f	.
.	.	4e	[2cc
.	.	4d	.
=78	=78	=78	=78
0r	1F	2c	4cc]
.	.	.	4b-
.	.	1f	1a
.	1c	.	.
.	.	4e	4g
.	.	4d	4f
=79	=79	=79	=79
1C	1.c	1e	1g
1F	.	1f	[1a
.	2c	.	.
=80	=80	=80	=80
1.F	2d	2r	1a]
.	2c	2a	.
.	1f	1a	1r
2F	.	.	.
=81	=81	=81	=81
2G	2e	2g	0r
2F	1d	2a	.
1B-	.	2.f	.
.	4c	.	.
.	4B-	4g	.
=82	=82	=82	=82
2A	2c	2a	0r
2.G	2d	2.b-	.
.	2G	.	.
4F	.	4a	.
4E	[2c	4g	.
4D	.	4f	.
=83	=83	=83	=83
2C	4c]	2g	2r
.	4B-	.	.
1F	4A	1a	2cc
.	4G	.	.
.	4A	.	2dd
.	4B-	.	.
2E	[2c	2g	2cc
=84	=84	=84	=84
1D	2c]	1f	1.ff
.	2B	.	.
[1C	1c	2r	.
.	.	[2g	4ee
.	.	.	4dd
=85	=85	=85	=85
1C]	2r	2g]	1ee
.	2c	2a	.
1r	2d	2b-	2dd
.	2e	[2cc	2cc
=86	=86	=86	=86
2r	2f	2cc]	1dd
2G	2g	2b-	.
2A	2e	2a	2r
2B-	2d	2g	[2g
=87	=87	=87	=87
2c	2e	2r	2g]
2A	2f	2c	2a
2G	1g	2d	2b-
2c	.	2e	2cc
=88	=88	=88	=88
2F	2r	2f	2a
2G	2g	2d	2g
2A	2e	2c	1cc
[2F	[2a	4f	.
.	.	4g	.
=89	=89	=89	=89
4F]	2a]	4a	1ff
4G	.	4b-	.
4A	2a	1cc	.
4B-	.	.	.
2c	2g	.	2ee
2d	4f	2a	[2dd
.	4e	.	.
=90	=90	=90	=90
2B-	2f	2b-	2dd]
2c	2e	2g	2.cc
1G	1d	2.g	.
.	.	.	8b-
.	.	.	8a
.	.	.	2b-
.	.	4f	.
=91	=91	=91	=91
1C	1c	4e	2.cc
.	.	4d	.
.	.	2.g	.
.	.	.	4b-
1r	1F	.	1a
.	.	4f	.
.	.	[2f	.
=92	=92	=92	=92
1r	1c	2f]	0g
.	.	4e	.
.	.	4d	.
1C	2c	1e	.
.	2c	.	.
=93	=93	=93	=93
1F	2d	1f	0r
.	2c	.	.
2F	1f	1r	.
2F	.	.	.
=94	=94	=94	=94
2G	2e	0r	1r
2F	2f	.	.
1B-	2.d	.	1f
.	4e	.	.
=95	=95	=95	=95
2.A	2f	1c	1cc
.	2e	.	.
4G	.	.	.
4F	2.A	1f	2cc
4E	.	.	.
[2F	.	.	2cc
.	4G	.	.
=96	=96	=96	=96
2F]	4A	2f	2dd
.	4F	.	.
2E	1c	2g	2cc
1D	.	2a	1ff
.	2B	2d	.
=97	=97	=97	=97
2C	2.c	1g	1ee
1c	.	.	.
.	4d	.	.
.	2e	2g	[1cc
2F	[2f	[2a	.
=98	=98	=98	=98
0F	2f]	2a]	2cc]
.	2f	2a	2cc
.	1f	1a	[1cc
=99	=99	=99	=99
1.A	2r	1e	1cc]
.	1c	.	.
.	.	2f	1r
2B-	2d	[2g	.
=100	=100	=100	=100
2c	2e	2g]	1r
2A	2c	2f	.
2B-	2d	2g	2r
2c	2e	2g	[2cc
=101	=101	=101	=101
1F	1f	1a	2cc]
.	.	.	2dd
1c	1e	[1g	2ee
.	.	.	2cc
=102	=102	=102	=102
2B	2r	1g]	2dd
2c	1c	.	2ee
2A	.	1r	1ff
2B	2d	.	.
=103	=103	=103	=103
2.c	2e	2.g	1ee
.	2c	.	.
8B	.	4g	.
8A	.	.	.
2B	2d	2g	2dd
2c	2e	2g	2cc
=104	=104	=104	=104
1F	2.f	2a	4dd
.	.	.	4cc
.	.	2a	1cc
.	4e	.	.
1G	1d	1g	.
.	.	.	2b
=105	=105	=105	=105
0C	1c	1e	[0cc
.	2r	1g	.
.	[2g	.	.
=106	=106	=106	=106
1c	2g]	1e	0cc]
.	1e	.	.
1A	.	1c	.
.	[2c	.	.
=107	=107	=107	=107
2F	2c]	1f	0r
2F	2c	.	.
2B-	2d	2f	.
2A	2c	2f	.
=108	=108	=108	=108
2B-	2d	1g	1r
2c	2e	.	.
[1F	1f	1a	1cc
=109	=109	=109	=109
0F]	1c	1f	1a
.	1A	2r	1f
.	.	2cc	.
=110	=110	=110	=110
0r	2F	1a	1cc
.	2F	.	.
.	2f	2a	2cc
.	2e	2g	2cc
=111	=111	=111	=111
0r	2f	2a	1dd
.	2g	2b	.
.	1c	1cc	1ee
=112	=112	=112	=112
1F	2r	1a	1cc
.	2f	.	.
2G	2e	1g	1r
2B-	2d	.	.
=113	=113	=113	=113
2A	2c	1r	0r
4F	1f	.	.
4G	.	.	.
4A	.	1c	.
4B-	.	.	.
[2c	2e	.	.
=114	=114	=114	=114
2c]	1d	2d	1r
2B-	.	1f	.
1c	2r	.	2r
.	2c	2e	2cc
=115	=115	=115	=115
0r	2d	1f	2b-
.	1f	.	2a
.	.	2.c	2g
.	2e	.	[2cc
.	.	4B-	.
=116	=116	=116	=116
1.F	2.f	2A	4cc]
.	.	.	4b-
.	.	2.f	4a
.	4e	.	4g
.	4d	.	1a
.	4c	4e	.
2F	[2c	2f	.
=117	=117	=117	=117
1G	2c]	1d	1g
.	2B	.	.
1A	2c	1c	2r
.	[2F	.	[2cc
=118	=118	=118	=118
2F	2F]	2r	2cc]
2F	2A	1f	2cc
1D	2B-	.	1dd
.	2A	2f	.
=119	=119	=119	=119
1C	1c	1g	1ee
1r	1F	1a	2cc
.	.	.	2cc
=120	=120	=120	=120
0r	1r	2f	2.ff
.	.	2f	.
.	.	.	4ee
.	2r	2.b-	4dd
.	.	.	4cc
.	2B-	.	2dd
.	.	4a	.
=121	=121	=121	=121
0r	1B-	4g	2b-
.	.	4f	.
.	.	2b-	2dd
.	1c	2a	2.cc
.	.	[2g	.
.	.	.	4b-
=122	=122	=122	=122
0r	2d	4g]	2a
.	.	4f	.
.	2d	1f	2f
.	2.c	.	1g
.	.	2e	.
.	4B-	.	.
=123	=123	=123	=123
1F	2A	2f	1.a
.	2.d	2f	.
1F	.	2f	.
.	4c	.	.
.	[2c	2e	2a
=124	=124	=124	=124
1G	2c]	2d	1g
.	2B-	2d	.
4A	1A	1c	1cc
4B-	.	.	.
[2c	.	.	.
=125	=125	=125	=125
2c]	1G	2r	1dd
2B	.	2g	.
1c	1r	1g	1ee
=126	=126	=126	=126
1F	0r	1a	1cc
1r	.	2f	2.ff
.	.	[2b-	.
.	.	.	4ee
=127	=127	=127	=127
0r	0r	4b-]	4dd
.	.	4a	4cc
.	.	4f	2ff
.	.	4g	.
.	.	4a	2ee
.	.	4g	.
.	.	4f	[2dd
.	.	4e	.
=128	=128	=128	=128
1F	0r	2.f	4dd]
.	.	.	4cc
.	.	.	1cc
.	.	4e	.
1G	.	2d	.
.	.	2d	2b
=129	=129	=129	=129
2A	2r	1c	2cc
2F	2c	.	2a
2B-	1d	2r	1b-
2d	.	2f	.
=130	=130	=130	=130
1c	2e	1g	0cc
.	2c	.	.
2r	2.f	1a	.
2F	.	.	.
.	4e	.	.
=131	=131	=131	=131
1F	4d	2a	2r
.	4c	.	.
.	2f	1a	1cc
2A	2e	.	.
2B-	[2d	4g	2dd
.	.	4f	.
=132	=132	=132	=132
2c	4d]	2e	2ee
.	4c	.	.
2A	1c	2c	2ff
1G	.	1d	2gg
.	2B	.	2gg
=133	=133	=133	=133
1r	1c	1c	1ee
[1c	[1g	[1cc	[1ee
=134	=134	=134	=134
1c]	2g]	1cc]	1ee]
.	1c	.	.
1F	.	1a	1ff
.	[2f	.	.
=135	=135	=135	=135
0B-	2f]	0b-	0dd
.	2.g	.	.
.	4f	.	.
.	[2f	.	.
=136	=136	=136	=136
0c	2f]	2g	1cc
.	4e	2g	.
.	4d	.	.
.	1e	2g	2r
.	.	2g	2g
=137	=137	=137	=137
1r	2r	2f	2a
.	2g	2e	2cc
1G	2g	1d	2cc
.	2g	.	2b-
=138	=138	=138	=138
2A	2f	2r	1cc
2c	2e	2g	.
2B-	2d	2g	2r
2A	2c	2f	2cc
=139	=139	=139	=139
1G	1d	1g	2cc
.	.	.	2b-
2.A	2r	2e	2cc
.	2c	2f	2a
4F	.	.	.
=140	=140	=140	=140
1G	2c	1d	1.g
.	2B-	.	.
1r	2c	2.e	.
.	2A	.	2a
.	.	4f	.
=141	=141	=141	=141
0r	2G	4g	2b-
.	.	8f	.
.	.	8e	.
.	2B-	2d	2.dd
.	2A	2e	.
.	.	.	4cc
.	2F	2f	[2cc
=142	=142	=142	=142
1r	1G	1d	2cc]
.	.	.	2b-
2r	2.g	1c	2.cc
2c	.	.	.
.	4f	.	8b-
.	.	.	8a
=143	=143	=143	=143
2c	2e	2r	1g
2B-	2d	2g	.
2c	2e	2g	1r
2A	2c	2f	.
=144	=144	=144	=144
2G	2d	1g	1r
2B-	2d	.	.
2A	2e	2a	2r
2F	2f	2a	2cc
=145	=145	=145	=145
1G	1d	1g	2cc
.	.	.	2b-
2.A	2.c	1e	2cc
.	.	.	2a
4B-	4d	.	.
=146	=146	=146	=146
2c	4e	2r	2g
.	4f	.	.
2G	2.g	2g	2b-
1d	.	2a	2a
.	4f	.	.
.	[2f	2b-	2f
=147	=147	=147	=147
1c	2f]	1cc	1g
.	2e	.	.
2r	1f	1a	2.cc
[2F	.	.	.
.	.	.	4b-
=148	=148	=148	=148
2F]	2.c	2f	2a
2E	.	1c	2.g
.	4B-	.	.
2F	2A	.	.
.	.	.	4f
2D	2F	2B-	[2f
=149	=149	=149	=149
0C	0G	0c	2f]
.	.	.	4e
.	.	.	4d
.	.	.	1e
=150	=150	=150	=150
0F	0F	0c	0f
==	==	==	==
*-	*-	*-	*-
!!!CDT: 1525/^1526/-1594/2/2
!!!OCY: Italia
!!!AGN: Mass (Parody)
!!!AST: renaissance, vocal
!!!ASW: Motet 1532 (Penet)
!!!PWK: Masses, Book 11
!!!RNB: Cadence finals: C
!!!YOR: Le Opere Complete, v. 28, p. 1
!!!YOO: Rome, Italy: Fratelli Scalera
!!!END: 1992//
!!!EED: John Miller
!!!YEC: Copyright 2000, John Miller
!!!YEN: United States of America
!!!YEM: Rights to all derivative electronic formats reserved.
!!!YEM: Refer to licensing agreement for further details.
!!!YEM: This file must be accompanied by the licensing agreement.
!!!YEM: A copy of the licensing agreement may be found at http://www.music-cog.ohio-state.edu/HumdrumDatabases/Palestrina/license.txt
!!!EMD: converted to Humdrum by Bret Aarden
